X:5140
T:Pit Lad,The . JMT005
O:england
M:6/8
L:1/8
S:John Moore,Tyneside,1841. (03a)
R:jig
A:Northumbria
H:184
K:D
A | d<fd cAc | d<fd cAc | e3 c2 A | e<fd cAc | def gec | d3 D2 :|
|:A | def g2e | f2d faf | e3c2A | def gfe | faf gec | d3 D2:|
|:A | dcB AGF | GAB cAc |e3c2A | dcB AGF | GAB Adc | d3D2 :|


